img/icons/communication/add-contacts.svg

<svg xmlns="http://www.w3.org/2000/svg" viewBox="0 0 47 40"><g data-name="Layer 2"><path d="M47 10h-7V3h-2v7h-7v2h7v7h2v-7h7v-2zm-35.17 3.57c.82 4.51 3.82 7.43 7.64 7.43s6.77-2.84 7.64-7.42c.14-.7.82-4.24.85-5.1a7.82 7.82 0 00-2.2-5.82 8.77 8.77 0 00-12.63 0A7.71 7.71 0 0011 8.49c0 .88.75 4.66.83 5.08zm2.75-9.49A6.77 6.77 0 0119.47 2a6.69 6.69 0 014.84 2A5.87 5.87 0 0126 8.39c0 .55-.52 3.25-.82 4.81-.57 2.8-2.34 5.8-5.71 5.8s-5.19-3.12-5.67-5.8c-.3-1.56-.8-4.26-.8-4.82a5.76 5.76 0 011.58-4.3zm17.11 21.64l-12.22-1.64-12.15 1.61c-3 .59-6.27 2.68-6.69 6L0 40h39l-.48-7.91c-.2-3.27-2.74-5.65-6.83-6.37zM2.09 38l.53-6c.29-2.33 2.84-3.86 5-4.29l11.85-1.61 11.91 1.59c1.48.27 4.94 1.23 5.15 4.52l.35 5.79z" fill="#231f20" data-name="Add Contacts"/></g></svg>

<svg xmlns="http://www.w3.org/2000/svg" viewBox="0 0 47 40"><defs><style>.cls-1{fill:#231f20;}</style></defs><title>Add Contacts</title><g id="Layer_2" data-name="Layer 2"><g id="Icons"><g id="Communication"><g id="Add_Contacts" data-name="Add Contacts"><polygon class="cls-1" points="47 10 40 10 40 3 38 3 38 10 31 10 31 12 38 12 38 19 40 19 40 12 47 12 47 10"/><path class="cls-1" d="M11.83,13.57c.82,4.51,3.82,7.43,7.64,7.43s6.77-2.84,7.64-7.42c.14-.7.82-4.24.85-5.1a7.82,7.82,0,0,0-2.2-5.82,8.77,8.77,0,0,0-12.63,0A7.71,7.71,0,0,0,11,8.49C11,9.37,11.75,13.15,11.83,13.57Zm2.75-9.49A6.77,6.77,0,0,1,19.47,2a6.69,6.69,0,0,1,4.84,2A5.87,5.87,0,0,1,26,8.39c0,.55-.52,3.25-.82,4.81C24.61,16,22.84,19,19.47,19s-5.19-3.12-5.67-5.8C13.5,11.64,13,8.94,13,8.38A5.76,5.76,0,0,1,14.58,4.08Z"/><path class="cls-1" d="M31.69,25.72,19.47,24.08,7.32,25.69c-3,.59-6.27,2.68-6.69,6L0,40H39l-.48-7.91C38.32,28.82,35.78,26.44,31.69,25.72ZM2.09,38,2.62,32c.29-2.33,2.84-3.86,5-4.29L19.47,26.1l11.91,1.59c1.48.27,4.94,1.23,5.15,4.52L36.88,38Z"/></g></g></g></g></svg>
